X:4
T:Bridget's Back In Town
C: Larry Unger
S:The Reckless Reel
M:6/8
L:1/8
K:D
"D"=cdd dcA|"D"GAB =cBA|"D"FGA BAB|"C"=cBc A2c|
"D"=cdd dcA|"D"GAB =cBA|"D"FGA FED |1ED=C "D"D2c:|2"C"ED=C"D"D2 D||
"C"E2E EFE |"C"EFE =c3|"D"d3 =c3|"D"AGF GFD|
"C"E2E EFE |"C"EFE =c3|"D"d3 =c2A|"D"AGF D2D|
"C"EFE EFE |"C"EFE EFE |"D"FGF FGF|"D"FGF FGF|
"C"GAG GAG|"C"GAG G2G|"D"AGA BAB|"D"=cBc "C"ABc|]
%%newpage
